web/assets/img/produtos/icone3.svg

<?xml version="1.0" encoding="UTF-8" standalone="no"?>
<svg
   xmlns:dc="http://purl.org/dc/elements/1.1/"
   xmlns:cc="http://creativecommons.org/ns#"
   xmlns:rdf="http://www.w3.org/1999/02/22-rdf-syntax-ns#"
   xmlns:svg="http://www.w3.org/2000/svg"
   xmlns="http://www.w3.org/2000/svg"
   xmlns:xlink="http://www.w3.org/1999/xlink"
   xmlns:sodipodi="http://sodipodi.sourceforge.net/DTD/sodipodi-0.dtd"
   xmlns:inkscape="http://www.inkscape.org/namespaces/inkscape"
   width="200pt"
   height="160pt"
   viewBox="0 0 200 160"
   version="1.2"
   id="svg37"
   sodipodi:docname="icone3.svg"
   inkscape:version="0.92.5 (2060ec1f9f, 2020-04-08)">
  <metadata
     id="metadata41">
    <rdf:RDF>
      <cc:Work
         rdf:about="">
        <dc:format>image/svg+xml</dc:format>
        <dc:type
           rdf:resource="http://purl.org/dc/dcmitype/StillImage" />
        <dc:title></dc:title>
      </cc:Work>
    </rdf:RDF>
  </metadata>
  <sodipodi:namedview
     pagecolor="#ffffff"
     bordercolor="#666666"
     borderopacity="1"
     objecttolerance="10"
     gridtolerance="10"
     guidetolerance="10"
     inkscape:pageopacity="0"
     inkscape:pageshadow="2"
     inkscape:window-width="1920"
     inkscape:window-height="1021"
     id="namedview39"
     showgrid="true"
     inkscape:zoom="2.6700352"
     inkscape:cx="137.79665"
     inkscape:cy="90.19575"
     inkscape:window-x="0"
     inkscape:window-y="27"
     inkscape:window-maximized="1"
     inkscape:current-layer="svg37">
    <inkscape:grid
       type="xygrid"
       id="grid43" />
  </sodipodi:namedview>
  <defs
     id="defs16">
    <g
       id="g11">
      <symbol
         overflow="visible"
         id="glyph0-0"
         style="overflow:visible">
        <path
           style="stroke:none"
           d=""
           id="path2"
           inkscape:connector-curvature="0" />
      </symbol>
      <symbol
         overflow="visible"
         id="glyph0-1"
         style="overflow:visible">
        <path
           style="stroke:none"
           d="m 0.203125,-0.28125 c 0,-0.28125 0.039063,-0.535156 0.125,-0.765625 0.09375,-0.238281 0.203125,-0.445313 0.328125,-0.625 0.125,-0.1875 0.289062,-0.410156 0.5,-0.671875 0.207031,-0.257812 0.375,-0.476562 0.5,-0.65625 0.125,-0.1875 0.226562,-0.394531 0.3125,-0.625 0.082031,-0.238281 0.125,-0.492188 0.125,-0.765625 0,-0.164063 -0.027344,-0.289063 -0.078125,-0.375 C 1.972656,-4.859375 1.894531,-4.90625 1.78125,-4.90625 c -0.199219,0 -0.296875,0.179688 -0.296875,0.53125 v 0.734375 h -1.28125 v -0.375 c 0,-0.457031 0.039063,-0.832031 0.125,-1.125 0.09375,-0.289063 0.253906,-0.515625 0.484375,-0.671875 0.238281,-0.15625 0.566406,-0.234375 0.984375,-0.234375 0.5,0 0.882813,0.148437 1.15625,0.4375 0.28125,0.28125 0.421875,0.679687 0.421875,1.1875 0,0.335937 -0.046875,0.636719 -0.140625,0.90625 C 3.140625,-3.242188 3.023438,-3.007812 2.890625,-2.8125 2.765625,-2.613281 2.59375,-2.378906 2.375,-2.109375 2.21875,-1.910156 2.082031,-1.738281 1.96875,-1.59375 1.863281,-1.445312 1.769531,-1.296875 1.6875,-1.140625 H 3.328125 V 0 h -3.125 z m 0,0"
           id="path5"
           inkscape:connector-curvature="0" />
      </symbol>
      <symbol
         overflow="visible"
         id="glyph0-2"
         style="overflow:visible">
        <path
           style="stroke:none"
           d="m 1.734375,0.0625 c -0.511719,0 -0.90625,-0.1445312 -1.1875,-0.4375 -0.273437,-0.289062 -0.40625,-0.703125 -0.40625,-1.234375 V -4.3125 c 0,-0.570312 0.128906,-1.003906 0.390625,-1.296875 0.269531,-0.300781 0.671875,-0.453125 1.203125,-0.453125 0.53125,0 0.925781,0.152344 1.1875,0.453125 0.269531,0.292969 0.40625,0.726563 0.40625,1.296875 v 2.703125 c 0,0.542969 -0.140625,0.960937 -0.421875,1.25 C 2.632812,-0.078125 2.242188,0.0625 1.734375,0.0625 Z m 0,-1.109375 c 0.082031,0 0.148437,-0.039063 0.203125,-0.125 C 2,-1.253906 2.03125,-1.351562 2.03125,-1.46875 V -4.4375 c 0,-0.164062 -0.023438,-0.296875 -0.0625,-0.390625 -0.042969,-0.09375 -0.121094,-0.140625 -0.234375,-0.140625 -0.125,0 -0.210937,0.046875 -0.25,0.140625 C 1.453125,-4.734375 1.4375,-4.601562 1.4375,-4.4375 v 2.96875 c 0,0.117188 0.023438,0.214844 0.078125,0.296875 0.050781,0.085937 0.125,0.125 0.21875,0.125 z m 0,0"
           id="path8"
           inkscape:connector-curvature="0" />
      </symbol>
    </g>
    <clipPath
       id="clip1">
      <path
         d="m 138.46875,112.5 h 98.01562 v 150 h -98.01562 z m 0,0"
         id="path13"
         inkscape:connector-curvature="0" />
    </clipPath>
  </defs>
  <g
     id="surface1"
     transform="translate(-92.070307,-107.44922)">
    <g
       clip-path="url(#clip1)"
       id="g20"
       style="clip-rule:nonzero">
      <path
         style="fill:#f8c23d;fill-opacity:1;fill-rule:nonzero;stroke:none"
         d="m 169.48047,196.19922 h 11.05078 v -5.85547 l -9.01563,-8.99609 z m -15.98828,49.49219 h 77.625 l -7.91407,-44.60547 h -61.79296 z m 9.11718,9.50781 c 0,1.33203 1.08204,2.41406 2.41797,2.41406 h 9.90235 c 1.33593,0 2.41797,-1.08203 2.41797,-2.41406 v -4.6211 h -14.73829 z m 19.63672,-4.6211 v 4.6211 c 0,0.84765 -0.14843,1.66015 -0.41406,2.41406 h 20.94922 c -0.26953,-0.75391 -0.41406,-1.56641 -0.41406,-2.41406 v -4.6211 z m 37.33594,7.03516 c 1.33594,0 2.42188,-1.08203 2.42188,-2.41406 v -4.6211 h -14.74219 v 4.6211 c 0,1.33203 1.08594,2.41406 2.42187,2.41406 z M 207.01562,136.98437 h -2.93359 v 59.21485 h 11.04688 z m -10.08984,-19.59765 h -9.23828 l -2.61328,14.71484 h 14.46484 z m -11.5,77.84375 v 0.96875 h 0.97266 z m 13.76172,0.96875 v -59.21485 h -13.76172 v 6.45704 h 3.48438 c 1.35546,0 2.44921,1.09375 2.44921,2.44531 0,1.34765 -1.09375,2.4414 -2.44921,2.4414 h -3.48438 v 4.80469 h 3.48438 c 1.35546,0 2.44921,1.09375 2.44921,2.44531 0,1.34766 -1.09375,2.44141 -2.44921,2.44141 h -3.48438 v 4.80469 h 3.48438 c 1.35546,0 2.44921,1.09375 2.44921,2.44531 0,1.34766 -1.09375,2.44141 -2.44921,2.44141 h -3.48438 v 4.80468 h 3.48438 c 1.35546,0 2.44921,1.09375 2.44921,2.44532 0,1.34765 -1.09375,2.4414 -2.44921,2.4414 h -3.48438 v 4.80469 h 3.48438 c 1.35546,0 2.44921,1.09375 2.44921,2.44531 0,1.34766 -1.09375,2.44141 -2.44921,2.44141 h -3.48438 v 1.22656 l 7.89453,7.87891 z m -26.83984,-20.92969 8.18359,8.16797 v -46.45313 h -2.9375 z m -33.28907,-26.31641 c -0.95312,-0.95312 -0.95312,-2.5 0,-3.45312 0.95703,-0.95313 2.50782,-0.95313 3.46094,0 l 25.48438,25.43359 5.03125,-36.72265 c 0.16406,-1.21094 1.19921,-2.10938 2.42578,-2.10938 h 4.64062 l 3.1211,-17.58593 c 0.20703,-1.16407 1.22265,-2.01563 2.41015,-2.01563 h 13.34375 c 1.1875,0 2.20313,0.85156 2.41016,2.01563 l 3.12109,17.58593 h 4.64453 c 1.22266,0 2.25782,0.89844 2.42578,2.10938 l 8.49219,61.98828 h 5.1836 c 1.1875,0 2.20312,0.85156 2.41015,2.01953 l 8.78125,49.48828 c 0.125,0.71094 -0.0703,1.44141 -0.53515,1.99609 -0.46485,0.55469 -1.14844,0.875 -1.875,0.875 h -7.13672 v 4.6211 c 0,0.84765 -0.14453,1.66015 -0.41407,2.41406 h 7.55079 c 1.35156,0 2.44921,1.09375 2.44921,2.44531 0,1.34766 -1.09765,2.44141 -2.44921,2.44141 h -83.46094 c -1.35156,0 -2.44531,-1.09375 -2.44531,-2.44141 0,-1.35156 1.09375,-2.44531 2.44531,-2.44531 h 7.55078 c -0.26563,-0.75391 -0.41016,-1.56641 -0.41016,-2.41406 v -4.6211 h -7.14062 c -0.72266,0 -1.41016,-0.32031 -1.875,-0.875 -0.46485,-0.55468 -0.66016,-1.28515 -0.53516,-1.99609 l 8.78516,-49.48828 c 0.20703,-1.16797 1.22265,-2.01953 2.41015,-2.01953 h 5.1836 l 2.6289,-19.1875 -28.11328,-28.0586"
         id="path18"
         inkscape:connector-curvature="0" />
    </g>
    <path
       style="fill:#f8c23d;fill-opacity:1;fill-rule:nonzero;stroke:none"
       d="m 181.58594,220.94531 c 1.35156,0 2.44922,1.09375 2.44922,2.44141 0,4.55469 3.71093,8.25781 8.26953,8.25781 4.5625,0 8.27343,-3.70312 8.27343,-8.25781 0,-4.55078 -3.71093,-8.25391 -8.27343,-8.25391 -1.35157,0 -2.44532,-1.09375 -2.44532,-2.4414 0,-1.35157 1.09375,-2.44532 2.44532,-2.44532 7.26172,0 13.16797,5.89453 13.16797,13.14063 0,7.24609 -5.90625,13.14453 -13.16797,13.14453 -7.25782,0 -13.16407,-5.89844 -13.16407,-13.14453 0,-1.34766 1.09375,-2.44141 2.44532,-2.44141"
       id="path22"
       inkscape:connector-curvature="0" />
    <g
       style="fill:#f8c23d;fill-opacity:1"
       id="g26">
      <use
         xlink:href="#glyph0-1"
         x="187.49998"
         y="226.15704"
         id="use24"
         width="100%"
         height="100%" />
    </g>
    <g
       style="fill:#f8c23d;fill-opacity:1"
       id="g30">
      <use
         xlink:href="#glyph0-2"
         x="190.9581"
         y="226.15704"
         id="use28"
         width="100%"
         height="100%" />
    </g>
    <g
       style="fill:#f8c23d;fill-opacity:1"
       id="g34">
      <use
         xlink:href="#glyph0-2"
         x="194.4162"
         y="226.15704"
         id="use32"
         width="100%"
         height="100%" />
    </g>
  </g>
</svg>

<?xml version="1.0" encoding="UTF-8"?>
<svg xmlns="http://www.w3.org/2000/svg" xmlns:xlink="http://www.w3.org/1999/xlink" width="375pt" height="374.999991pt" viewBox="0 0 375 374.999991" version="1.2">
<defs>
<g>
<symbol overflow="visible" id="glyph0-0">
<path style="stroke:none;" d=""/>
</symbol>
<symbol overflow="visible" id="glyph0-1">
<path style="stroke:none;" d="M 0.203125 -0.28125 C 0.203125 -0.5625 0.242188 -0.816406 0.328125 -1.046875 C 0.421875 -1.285156 0.53125 -1.492188 0.65625 -1.671875 C 0.78125 -1.859375 0.945312 -2.082031 1.15625 -2.34375 C 1.363281 -2.601562 1.53125 -2.820312 1.65625 -3 C 1.78125 -3.1875 1.882812 -3.394531 1.96875 -3.625 C 2.050781 -3.863281 2.09375 -4.117188 2.09375 -4.390625 C 2.09375 -4.554688 2.066406 -4.679688 2.015625 -4.765625 C 1.972656 -4.859375 1.894531 -4.90625 1.78125 -4.90625 C 1.582031 -4.90625 1.484375 -4.726562 1.484375 -4.375 L 1.484375 -3.640625 L 0.203125 -3.640625 L 0.203125 -4.015625 C 0.203125 -4.472656 0.242188 -4.847656 0.328125 -5.140625 C 0.421875 -5.429688 0.582031 -5.65625 0.8125 -5.8125 C 1.050781 -5.96875 1.378906 -6.046875 1.796875 -6.046875 C 2.296875 -6.046875 2.679688 -5.898438 2.953125 -5.609375 C 3.234375 -5.328125 3.375 -4.929688 3.375 -4.421875 C 3.375 -4.085938 3.328125 -3.785156 3.234375 -3.515625 C 3.140625 -3.242188 3.023438 -3.007812 2.890625 -2.8125 C 2.765625 -2.613281 2.59375 -2.378906 2.375 -2.109375 C 2.21875 -1.910156 2.082031 -1.738281 1.96875 -1.59375 C 1.863281 -1.445312 1.769531 -1.296875 1.6875 -1.140625 L 3.328125 -1.140625 L 3.328125 0 L 0.203125 0 Z M 0.203125 -0.28125 "/>
</symbol>
<symbol overflow="visible" id="glyph0-2">
<path style="stroke:none;" d="M 1.734375 0.0625 C 1.222656 0.0625 0.828125 -0.0820312 0.546875 -0.375 C 0.273438 -0.664062 0.140625 -1.078125 0.140625 -1.609375 L 0.140625 -4.3125 C 0.140625 -4.882812 0.269531 -5.316406 0.53125 -5.609375 C 0.800781 -5.910156 1.203125 -6.0625 1.734375 -6.0625 C 2.265625 -6.0625 2.660156 -5.910156 2.921875 -5.609375 C 3.191406 -5.316406 3.328125 -4.882812 3.328125 -4.3125 L 3.328125 -1.609375 C 3.328125 -1.066406 3.1875 -0.648438 2.90625 -0.359375 C 2.632812 -0.078125 2.242188 0.0625 1.734375 0.0625 Z M 1.734375 -1.046875 C 1.816406 -1.046875 1.882812 -1.085938 1.9375 -1.171875 C 2 -1.253906 2.03125 -1.351562 2.03125 -1.46875 L 2.03125 -4.4375 C 2.03125 -4.601562 2.007812 -4.734375 1.96875 -4.828125 C 1.925781 -4.921875 1.847656 -4.96875 1.734375 -4.96875 C 1.609375 -4.96875 1.523438 -4.921875 1.484375 -4.828125 C 1.453125 -4.734375 1.4375 -4.601562 1.4375 -4.4375 L 1.4375 -1.46875 C 1.4375 -1.351562 1.460938 -1.253906 1.515625 -1.171875 C 1.566406 -1.085938 1.640625 -1.046875 1.734375 -1.046875 Z M 1.734375 -1.046875 "/>
</symbol>
</g>
<clipPath id="clip1">
  <path d="M 138.46875 112.5 L 236.484375 112.5 L 236.484375 262.5 L 138.46875 262.5 Z M 138.46875 112.5 "/>
</clipPath>
</defs>
<g id="surface1">
<g clip-path="url(#clip1)" clip-rule="nonzero">
<path style=" stroke:none;fill-rule:nonzero;fill:rgb(97.24884%,76.078796%,24.308777%);fill-opacity:1;" d="M 169.480469 196.199219 L 180.53125 196.199219 L 180.53125 190.34375 L 171.515625 181.347656 Z M 153.492188 245.691406 L 231.117188 245.691406 L 223.203125 201.085938 L 161.410156 201.085938 Z M 162.609375 255.199219 C 162.609375 256.53125 163.691406 257.613281 165.027344 257.613281 L 174.929688 257.613281 C 176.265625 257.613281 177.347656 256.53125 177.347656 255.199219 L 177.347656 250.578125 L 162.609375 250.578125 Z M 182.246094 250.578125 L 182.246094 255.199219 C 182.246094 256.046875 182.097656 256.859375 181.832031 257.613281 L 202.78125 257.613281 C 202.511719 256.859375 202.367188 256.046875 202.367188 255.199219 L 202.367188 250.578125 Z M 219.582031 257.613281 C 220.917969 257.613281 222.003906 256.53125 222.003906 255.199219 L 222.003906 250.578125 L 207.261719 250.578125 L 207.261719 255.199219 C 207.261719 256.53125 208.347656 257.613281 209.683594 257.613281 Z M 207.015625 136.984375 L 204.082031 136.984375 L 204.082031 196.199219 L 215.128906 196.199219 Z M 196.925781 117.386719 L 187.6875 117.386719 L 185.074219 132.101562 L 199.539062 132.101562 Z M 185.425781 195.230469 L 185.425781 196.199219 L 186.398438 196.199219 Z M 199.1875 196.199219 L 199.1875 136.984375 L 185.425781 136.984375 L 185.425781 143.441406 L 188.910156 143.441406 C 190.265625 143.441406 191.359375 144.535156 191.359375 145.886719 C 191.359375 147.234375 190.265625 148.328125 188.910156 148.328125 L 185.425781 148.328125 L 185.425781 153.132812 L 188.910156 153.132812 C 190.265625 153.132812 191.359375 154.226562 191.359375 155.578125 C 191.359375 156.925781 190.265625 158.019531 188.910156 158.019531 L 185.425781 158.019531 L 185.425781 162.824219 L 188.910156 162.824219 C 190.265625 162.824219 191.359375 163.917969 191.359375 165.269531 C 191.359375 166.617188 190.265625 167.710938 188.910156 167.710938 L 185.425781 167.710938 L 185.425781 172.515625 L 188.910156 172.515625 C 190.265625 172.515625 191.359375 173.609375 191.359375 174.960938 C 191.359375 176.308594 190.265625 177.402344 188.910156 177.402344 L 185.425781 177.402344 L 185.425781 182.207031 L 188.910156 182.207031 C 190.265625 182.207031 191.359375 183.300781 191.359375 184.652344 C 191.359375 186 190.265625 187.09375 188.910156 187.09375 L 185.425781 187.09375 L 185.425781 188.320312 L 193.320312 196.199219 Z M 172.347656 175.269531 L 180.53125 183.4375 L 180.53125 136.984375 L 177.59375 136.984375 Z M 139.058594 148.953125 C 138.105469 148 138.105469 146.453125 139.058594 145.5 C 140.015625 144.546875 141.566406 144.546875 142.519531 145.5 L 168.003906 170.933594 L 173.035156 134.210938 C 173.199219 133 174.234375 132.101562 175.460938 132.101562 L 180.101562 132.101562 L 183.222656 114.515625 C 183.429688 113.351562 184.445312 112.5 185.632812 112.5 L 198.976562 112.5 C 200.164062 112.5 201.179688 113.351562 201.386719 114.515625 L 204.507812 132.101562 L 209.152344 132.101562 C 210.375 132.101562 211.410156 133 211.578125 134.210938 L 220.070312 196.199219 L 225.253906 196.199219 C 226.441406 196.199219 227.457031 197.050781 227.664062 198.21875 L 236.445312 247.707031 C 236.570312 248.417969 236.375 249.148438 235.910156 249.703125 C 235.445312 250.257812 234.761719 250.578125 234.035156 250.578125 L 226.898438 250.578125 L 226.898438 255.199219 C 226.898438 256.046875 226.753906 256.859375 226.484375 257.613281 L 234.035156 257.613281 C 235.386719 257.613281 236.484375 258.707031 236.484375 260.058594 C 236.484375 261.40625 235.386719 262.5 234.035156 262.5 L 150.574219 262.5 C 149.222656 262.5 148.128906 261.40625 148.128906 260.058594 C 148.128906 258.707031 149.222656 257.613281 150.574219 257.613281 L 158.125 257.613281 C 157.859375 256.859375 157.714844 256.046875 157.714844 255.199219 L 157.714844 250.578125 L 150.574219 250.578125 C 149.851562 250.578125 149.164062 250.257812 148.699219 249.703125 C 148.234375 249.148438 148.039062 248.417969 148.164062 247.707031 L 156.949219 198.21875 C 157.15625 197.050781 158.171875 196.199219 159.359375 196.199219 L 164.542969 196.199219 L 167.171875 177.011719 L 139.058594 148.953125 "/>
</g>
<path style=" stroke:none;fill-rule:nonzero;fill:rgb(97.24884%,76.078796%,24.308777%);fill-opacity:1;" d="M 181.585938 220.945312 C 182.9375 220.945312 184.035156 222.039062 184.035156 223.386719 C 184.035156 227.941406 187.746094 231.644531 192.304688 231.644531 C 196.867188 231.644531 200.578125 227.941406 200.578125 223.386719 C 200.578125 218.835938 196.867188 215.132812 192.304688 215.132812 C 190.953125 215.132812 189.859375 214.039062 189.859375 212.691406 C 189.859375 211.339844 190.953125 210.246094 192.304688 210.246094 C 199.566406 210.246094 205.472656 216.140625 205.472656 223.386719 C 205.472656 230.632812 199.566406 236.53125 192.304688 236.53125 C 185.046875 236.53125 179.140625 230.632812 179.140625 223.386719 C 179.140625 222.039062 180.234375 220.945312 181.585938 220.945312 "/>
<g style="fill:rgb(97.24884%,76.078796%,24.308777%);fill-opacity:1;">
  <use xlink:href="#glyph0-1" x="187.499992" y="226.157048"/>
</g>
<g style="fill:rgb(97.24884%,76.078796%,24.308777%);fill-opacity:1;">
  <use xlink:href="#glyph0-2" x="190.958097" y="226.157048"/>
</g>
<g style="fill:rgb(97.24884%,76.078796%,24.308777%);fill-opacity:1;">
  <use xlink:href="#glyph0-2" x="194.416202" y="226.157048"/>
</g>
</g>
</svg>
